X:1
T:Picadilly
T:Picadilly
T:Satie  arr.Dempsey
C:Satie  arr.Dempsey
%%score ( 1 2 )
L:1/8
M:4/4
K:G
V:1 treble-8 nm="Acoustic Guitar" snm="Guit."
V:2 treble-8 
V:1
{/def} g2!-(!{/g} !-)!b2 g2 e2 | g2 [DGd]2 [DGd]4 | e2 _ee dBd=e | [GBg]4 [GBe]4 | %4
 z2 [DGd][DGd] z2 [EGB]2 | z2 [DGd]2 z2 [EGBe]2 | z2 [DGd][DGd] z2 [EGB]2 | z2 [DGd]2 z2 [EGBe]2 |: %8
 [GB] [Gd]2 [Be] [Bg]2 [Be]2 | [Gd] [GB]2 A [EG]2 E2 | [Gd] [dg]2 [de] [Gd] [dg]2 [Be] | %11
 F2 [cd][cd] z2 [cd]2 |"^CV................................"!-(!{/e} !-)!f a2 f [ce]f a2 | %13
 eegg ed g2 | [G^cf]2 [c=f]2 [Gce]2 [c^f]a | [F=cd]2 [de][dg] [Acf]2 A^A | %16
 [GB] [Gd]2 [Be] [Bg]2 [Be]2 | [Gd] [GB]2 A [EG]2 E2 | [Gd] [dg]2 [de] [Gd] [dg]2 [Be] | %19
 [^ceb]4 a2 ge | dedB [DA] G2 E | G2 ED- D2 z2 | d g2 e d f2 e | d2 e2 g4!fine! |] %24
 z2 [Gce][Gce] z2 [EAc]2 | z2 [EGc]2 z2 [EAc]2 | z2 [Gce][Gce] z2 [EAc]2 | z2 [EGc]2 z2 [EAc]2 | %28
 [d=f]2 [de]2 d2 ef |!-(!{/d} !-)![dg] [gb]2 [dg] [gb]2 g=f | e g2 a c'2 a2 | g2 e2 g2 a2 | %32
 b d'2 b d'2 bd' | a c'2 a c'2 ae | [Fcd]2 [cde]2 [Ac=f]2 [Ac^f]2 | z2 [DGBg][DGBg] z2 [DGBg]2 | %36
 [d=f]2 [de]2 d2 ef |!-(!{/d} !-)![dg] [gb]2 [dg] [gb]2 g=f | e g2 a c'2 a2 | g2 e2 d2 c2 | %40
 c' c'2 a c'2 c'a | [ec'] c'2 g [gc']2 ga | a a2 g a2 ge | [EGc]4 [^Fcd]4!D.C.! :| %44
V:2
 G,2!-(!{/G,} !-)!B,2 G,2 E,2 | G,2 G,2 G,4 | E2 _EE DB,D=E | G,4 E,4 | G,4 E,4 | G,4 E,4 | %6
 G,4 E,4 | G,4 E,4 |: G,2 D2 G,2 D2 | G,2 D2 E,2 B,2 | G,2 D2 G,2 G2 | D2 F2 D2 F2 | %12
!-(!{/C} !-)![Dc]2 A2 D2 A2 | [E,GB]2 G2 [E,GB]2 G2 | A,2 E2 A,2 E2 | D2 F2 D2 D2 | G,2 D2 G,2 D2 | %17
 G,2 D2 E,2 B,2 | G,2 D2 G,2 G2 | [A,G]4 A2 G2 | [G,DG]2 [DG]2 G,3 B, | G,2 B,2 G,2 B,2 | %22
 [G,DG]2 D2 [B,FB]2 F2 | [DFc]2 [Fc]2 [G,DGB]4 |] C4 A,4 | G,4 A,4 | C4 A,4 | G,4 A,4 | %28
 D2 A2 D2 A2 | D2 d2 D2 d2 | [CG]2 G2 [Gce]2 [ce]2 | [CEc]2 [EGc]2 [CGc]2 c2 | %32
 [Bg]2 [dg]2 [Bg]2 [dg]2 | [Ae]2 [ce]2 [Ae]2 [A,Ac]2 | D2 F2 =F2 D2 | G,4 G,4 | D2 A2 D2 A2 | %37
 D2 d2 D2 d2 | [CG]2 G2 [Gce]2 [ce]2 | [CEc]2 [EGc]2 [CG]2 G2 | [A=f]2 [cf]2 [A,f]2 [cf]2 | %41
 G2 c2 G2 [Gc]2 | [G,d]2 G2 [G,d]2 [GB]2 | C4 D4 :| %44

